X: 2992
T: Battered Hake
R: polka
M: 2/4
K: Dmajor
dc/d/ ec|dB AA/A/|BG G/A/B/G/|AF ED|dc/d/ ec|
dB AA|BG cA|dB ec:|DF/G/ AA|DF/G/ AA|EG/A/ BB|EG/A/ BB|
DF/G/ AA|DF/G/ AA|BG G/A/B/G/|AF ED|DF/G/ AA|DF/G/ AA|
EG/A/ BB|EG/A/ BB|DF/G/ AA|DF/G/ AA|BG cA|dB ec||

